src/containers/site/SiteAboutScreen/asset/mission_icon.svg

<svg width="71" height="67" viewBox="0 0 71 67" fill="none" xmlns="http://www.w3.org/2000/svg">
<mask id="mask0" mask-type="alpha" maskUnits="userSpaceOnUse" x="33" y="0" width="27" height="34">
<path fill-rule="evenodd" clip-rule="evenodd" d="M35.3076 0C34.1381 0 33.1899 0.936569 33.1899 2.09231V19.6104V19.6172V31.581C33.1899 32.7365 34.1381 33.6733 35.3076 33.6733C36.4773 33.6733 37.4255 32.7365 37.4255 31.581V21.669L57.9124 21.2968C58.7431 21.2816 59.4882 20.7879 59.8175 20.0341C60.1468 19.2804 59.9996 18.4058 59.4408 17.798L52.8684 10.6485L59.4408 3.49886C60.0044 2.88582 60.1489 2.00234 59.8098 1.24545C59.4707 0.488031 58.7116 0 57.8732 0H35.3076ZM37.4255 4.18457H53.0895L48.4402 9.24142C47.7067 10.0394 47.7067 11.2574 48.4402 12.0553L53.1673 17.1974L37.4255 17.4835V4.18457Z" fill="white"/>
</mask>
<g mask="url(#mask0)">
<path fill-rule="evenodd" clip-rule="evenodd" d="M35.3076 0C34.1381 0 33.1899 0.936569 33.1899 2.09231V19.6104V19.6172V31.581C33.1899 32.7365 34.1381 33.6733 35.3076 33.6733C36.4773 33.6733 37.4255 32.7365 37.4255 31.581V21.669L57.9124 21.2968C58.7431 21.2816 59.4882 20.7879 59.8175 20.0341C60.1468 19.2804 59.9996 18.4058 59.4408 17.798L52.8684 10.6485L59.4408 3.49886C60.0044 2.88582 60.1489 2.00234 59.8098 1.24545C59.4707 0.488031 58.7116 0 57.8732 0H35.3076ZM37.4255 4.18457H53.0895L48.4402 9.24142C47.7067 10.0394 47.7067 11.2574 48.4402 12.0553L53.1673 17.1974L37.4255 17.4835V4.18457Z" fill="url(#paint0_linear)"/>
</g>
<mask id="mask1" mask-type="alpha" maskUnits="userSpaceOnUse" x="0" y="29" width="71" height="38">
<path fill-rule="evenodd" clip-rule="evenodd" d="M32.9021 30.817L1.19269 60.1297C0.422291 60.8414 0.00715298 61.8116 0 62.8103V62.8632C0.0031791 63.3098 0.0882202 63.7615 0.259362 64.1976C0.821004 65.626 2.17742 66.5489 3.71558 66.5489H67.135C68.6729 66.5489 70.0293 65.626 70.591 64.1976C71.1518 62.7688 70.7859 61.1723 69.6579 60.1297L37.9484 30.817C37.2408 30.1631 36.3329 29.8359 35.425 29.8359C34.5174 29.8359 33.6095 30.1629 32.9021 30.817ZM35.4251 34.2495L65.7916 62.3204H5.05908L35.4251 34.2495Z" fill="white"/>
</mask>
<g mask="url(#mask1)">
<path fill-rule="evenodd" clip-rule="evenodd" d="M32.9021 30.817L1.19269 60.1297C0.422291 60.8414 0.00715298 61.8116 0 62.8103V62.8632C0.0031791 63.3098 0.0882202 63.7615 0.259362 64.1976C0.821004 65.626 2.17742 66.5489 3.71558 66.5489H67.135C68.6729 66.5489 70.0293 65.626 70.591 64.1976C71.1518 62.7688 70.7859 61.1723 69.6579 60.1297L37.9484 30.817C37.2408 30.1631 36.3329 29.8359 35.425 29.8359C34.5174 29.8359 33.6095 30.1629 32.9021 30.817ZM35.4251 34.2495L65.7916 62.3204H5.05908L35.4251 34.2495Z" fill="url(#paint1_linear)"/>
</g>
<mask id="mask2" mask-type="alpha" maskUnits="userSpaceOnUse" x="3" y="47" width="66" height="19">
<path fill-rule="evenodd" clip-rule="evenodd" d="M29.9012 53.1452L17.094 49.4294L13.2744 51.7737L3.02759 63.3893L53.7766 65.5842L68.9555 62.8378L51.8789 47.9561L29.9012 53.1452Z" fill="white"/>
</mask>
<g mask="url(#mask2)">
<path fill-rule="evenodd" clip-rule="evenodd" d="M29.9012 53.1452L17.094 49.4294L13.2744 51.7737L3.02759 63.3893L53.7766 65.5842L68.9555 62.8378L51.8789 47.9561L29.9012 53.1452Z" fill="url(#paint2_linear)"/>
</g>
<defs>
<linearGradient id="paint0_linear" x1="33.1901" y1="33.6732" x2="59.9911" y2="33.6732" gradientUnits="userSpaceOnUse">
<stop stop-color="#5B8AFB"/>
<stop offset="1" stop-color="#83AFFF"/>
</linearGradient>
<linearGradient id="paint1_linear" x1="0" y1="66.549" x2="70.8504" y2="66.549" gradientUnits="userSpaceOnUse">
<stop stop-color="#FFB300"/>
<stop offset="1" stop-color="#FF8E36"/>
</linearGradient>
<linearGradient id="paint2_linear" x1="3.02745" y1="65.5843" x2="68.9554" y2="65.5843" gradientUnits="userSpaceOnUse">
<stop stop-color="#FFB300"/>
<stop offset="1" stop-color="#FF8E36"/>
</linearGradient>
</defs>
</svg>

<svg width="71" height="67" fill="none" xmlns="http://www.w3.org/2000/svg"><mask id="a" maskUnits="userSpaceOnUse" x="33" y="0" width="27" height="34"><path fill-rule="evenodd" clip-rule="evenodd" d="M35.308 0c-1.17 0-2.118.937-2.118 2.092V31.581c0 1.155.948 2.092 2.118 2.092s2.117-.937 2.117-2.092v-9.912l20.487-.372a2.118 2.118 0 001.906-1.263 2.073 2.073 0 00-.377-2.236l-6.573-7.15 6.573-7.15a2.073 2.073 0 00.369-2.253A2.118 2.118 0 0057.873 0H35.308zm2.117 4.185H53.09L48.44 9.24a2.074 2.074 0 000 2.814l4.727 5.142-15.742.287v-13.3z" fill="#fff"/></mask><g mask="url(#a)"><path fill-rule="evenodd" clip-rule="evenodd" d="M35.308 0c-1.17 0-2.118.937-2.118 2.092V31.581c0 1.155.948 2.092 2.118 2.092s2.117-.937 2.117-2.092v-9.912l20.487-.372a2.118 2.118 0 001.906-1.263 2.073 2.073 0 00-.377-2.236l-6.573-7.15 6.573-7.15a2.073 2.073 0 00.369-2.253A2.118 2.118 0 0057.873 0H35.308zm2.117 4.185H53.09L48.44 9.24a2.074 2.074 0 000 2.814l4.727 5.142-15.742.287v-13.3z" fill="url(#paint0_linear)"/></g><mask id="b" maskUnits="userSpaceOnUse" x="0" y="29" width="71" height="38"><path fill-rule="evenodd" clip-rule="evenodd" d="M32.902 30.817L1.192 60.13A3.677 3.677 0 000 62.81v.053c.003.447.088.898.26 1.335a3.69 3.69 0 003.456 2.35h63.419a3.69 3.69 0 003.456-2.35 3.676 3.676 0 00-.933-4.068l-31.71-29.313a3.71 3.71 0 00-2.523-.981c-.908 0-1.816.327-2.523.981zm2.523 3.432L65.792 62.32H5.059l30.366-28.07z" fill="#fff"/></mask><g mask="url(#b)"><path fill-rule="evenodd" clip-rule="evenodd" d="M32.902 30.817L1.192 60.13A3.677 3.677 0 000 62.81v.053c.003.447.088.898.26 1.335a3.69 3.69 0 003.456 2.35h63.419a3.69 3.69 0 003.456-2.35 3.676 3.676 0 00-.933-4.068l-31.71-29.313a3.71 3.71 0 00-2.523-.981c-.908 0-1.816.327-2.523.981zm2.523 3.432L65.792 62.32H5.059l30.366-28.07z" fill="url(#paint1_linear)"/></g><mask id="c" maskUnits="userSpaceOnUse" x="3" y="47" width="66" height="19"><path fill-rule="evenodd" clip-rule="evenodd" d="M29.901 53.145L17.094 49.43l-3.82 2.345L3.028 63.389l50.749 2.195 15.178-2.746L51.88 47.956 29.9 53.146z" fill="#fff"/></mask><g mask="url(#c)"><path fill-rule="evenodd" clip-rule="evenodd" d="M29.901 53.145L17.094 49.43l-3.82 2.345L3.028 63.389l50.749 2.195 15.178-2.746L51.88 47.956 29.9 53.146z" fill="url(#paint2_linear)"/></g><defs><linearGradient id="paint0_linear" x1="33.19" y1="33.673" x2="59.991" y2="33.673" gradientUnits="userSpaceOnUse"><stop stop-color="#5B8AFB"/><stop offset="1" stop-color="#83AFFF"/></linearGradient><linearGradient id="paint1_linear" x1="0" y1="66.549" x2="70.85" y2="66.549" gradientUnits="userSpaceOnUse"><stop stop-color="#FFB300"/><stop offset="1" stop-color="#FF8E36"/></linearGradient><linearGradient id="paint2_linear" x1="3.027" y1="65.584" x2="68.955" y2="65.584" gradientUnits="userSpaceOnUse"><stop stop-color="#FFB300"/><stop offset="1" stop-color="#FF8E36"/></linearGradient></defs></svg>
